X: 41471
T: Ty
R: polka
M: 2/4
K: Dmajor
B,/|:A,B, DE|FE DB,|A,B, DE|EF EF|
A,B, DE|FE DB,|A,B, DE|1 D2 DB,:|2 D2 DE||
|:FA BA|d2 d2|zB AF|E2 ED/E/|
FA BA|d2 d2|zB AF|1 D2 D>E:|2 D2 D>||

